public/static/img/trade/ai.svg

<svg width="28" height="28" viewBox="0 0 28 28" fill="none" xmlns="http://www.w3.org/2000/svg">
<g id="Frame" clip-path="url(#clip0_231_13402)">
<path id="Vector" d="M3.69326 16.2261C2.90202 16.2344 2.13974 15.9287 1.57346 15.376C1.00717 14.8233 0.683052 14.0687 0.672116 13.2775C0.639519 11.5677 1.92265 10.243 3.69474 10.1971V16.2275L3.69326 16.2261ZM23.9049 16.2053V10.2342C25.5021 10.1008 26.9453 11.5099 26.9616 13.1738C26.9764 14.8777 25.5569 16.309 23.9049 16.2053ZM17.7544 11.6477C17.5461 11.6428 17.3388 11.6792 17.1446 11.7548C16.9504 11.8304 16.7731 11.9437 16.623 12.0882C16.4728 12.2327 16.3528 12.4056 16.2698 12.5967C16.1868 12.7879 16.1424 12.9936 16.1394 13.202C16.132 14.0554 16.8654 14.7948 17.7307 14.8022C18.1523 14.8038 18.5575 14.6389 18.8583 14.3435C19.159 14.048 19.331 13.6458 19.3368 13.2242C19.3409 13.0155 19.3027 12.8082 19.2245 12.6147C19.1464 12.4212 19.0298 12.2456 18.882 12.0983C18.7342 11.951 18.5581 11.8351 18.3643 11.7577C18.1705 11.6803 17.963 11.6428 17.7544 11.6477ZM8.32351 13.2449C8.3256 13.4535 8.3692 13.6595 8.45176 13.851C8.53433 14.0425 8.65421 14.2157 8.80441 14.3604C8.95462 14.5051 9.13213 14.6184 9.3266 14.6937C9.52106 14.7691 9.72859 14.8049 9.93706 14.7992C10.3589 14.7876 10.7596 14.6116 11.0536 14.3088C11.3475 14.006 11.5115 13.6003 11.5106 13.1783C11.4943 12.307 10.7787 11.6314 9.87335 11.6417C9.6646 11.6393 9.45755 11.6795 9.26488 11.7599C9.07222 11.8403 8.898 11.9592 8.7529 12.1093C8.6078 12.2594 8.49487 12.4375 8.42104 12.6328C8.3472 12.8281 8.31402 13.0364 8.32351 13.2449ZM10.6231 20.8904V19.5228C10.3697 19.508 10.1356 19.4887 9.90446 19.4858C8.67171 19.4828 7.43747 19.4917 6.20471 19.4828C5.45498 19.4754 5.20161 19.2309 5.20161 18.5019C5.19865 14.9829 5.19865 11.4639 5.20161 7.94051C5.20161 7.17448 5.44016 6.9552 6.25064 6.9552C8.64948 6.95223 11.0468 6.9552 13.5479 6.9552C13.5479 5.92691 13.5583 5.75355 13.5316 4.75935C13.5272 4.65267 13.3138 4.52376 13.1775 4.44523C12.4159 4.02592 12.0825 3.35027 12.2885 2.60054C12.3752 2.25699 12.5746 1.95241 12.8547 1.73541C13.1348 1.51841 13.4795 1.4015 13.8339 1.40334C14.5629 1.41371 15.1911 1.916 15.363 2.62276C15.5497 3.38731 15.2089 4.04814 14.4488 4.46005C14.2888 4.54895 14.0754 4.74157 14.0724 4.88677C14.0354 5.82023 14.0546 5.9358 14.0546 6.94779H21.3001C22.2054 6.94779 22.4291 7.15819 22.4321 8.06794C22.4381 11.4793 22.4381 14.8906 22.4321 18.3019C22.4321 19.2754 22.2113 19.4754 21.2082 19.4769C19.888 19.4813 18.5678 19.4843 17.2477 19.4917C17.1825 19.4917 17.1217 19.5198 17.0076 19.551V20.9897C17.4818 20.9897 17.9559 20.9867 18.4286 20.9897C18.9886 20.9941 19.2879 21.2742 19.2909 21.8387C19.2954 23.0833 19.2909 23.51 19.2954 24.7576C19.2954 25.3562 18.9694 25.6466 18.3945 25.6466C15.3333 25.651 12.2752 25.651 9.21104 25.6466C8.62874 25.6466 8.32351 25.3562 8.32944 24.7487C8.34277 23.5233 8.32648 23.1188 8.33685 21.8965C8.34277 21.2282 8.5754 21.0104 9.26438 20.9926C9.67925 20.9823 10.1 20.9778 10.5194 20.9689C10.5268 20.9704 10.5445 20.9482 10.6231 20.8889V20.8904Z" fill="white"/>
</g>
<defs>
<clipPath id="clip0_231_13402">
<rect width="26.6645" height="26.6645" fill="white" transform="translate(0.671509 0.666016)"/>
</clipPath>
</defs>
</svg>

<svg width="28" height="28" fill="none" xmlns="http://www.w3.org/2000/svg"><g clip-path="url(#a)"><path d="M3.693 16.226a2.99 2.99 0 0 1-3.02-2.948c-.033-1.71 1.25-3.035 3.022-3.08v6.03l-.002-.002Zm20.212-.02v-5.972c1.597-.133 3.04 1.276 3.057 2.94.014 1.704-1.405 3.135-3.057 3.031Zm-6.15-4.558a1.579 1.579 0 0 0-1.616 1.554c-.007.853.726 1.593 1.592 1.6a1.6 1.6 0 0 0 1.493-2.187 1.546 1.546 0 0 0-1.47-.967Zm-9.431 1.597a1.57 1.57 0 0 0 1.613 1.554 1.618 1.618 0 0 0 1.574-1.62c-.017-.872-.732-1.548-1.638-1.537a1.534 1.534 0 0 0-1.55 1.603Zm2.3 7.645v-1.367c-.254-.015-.488-.034-.72-.037-1.232-.003-2.467.006-3.7-.003-.749-.008-1.002-.252-1.002-.981-.003-3.52-.003-7.038 0-10.561 0-.767.238-.986 1.049-.986 2.398-.003 4.796 0 7.297 0 0-1.028.01-1.201-.016-2.196-.005-.106-.218-.235-.354-.314-.762-.42-1.096-1.095-.89-1.844a1.585 1.585 0 0 1 1.546-1.198c.729.01 1.357.513 1.529 1.22.187.764-.154 1.425-.914 1.837-.16.089-.374.282-.377.427-.037.933-.017 1.049-.017 2.06H21.3c.905 0 1.13.211 1.132 1.12.006 3.412.006 6.824 0 10.235 0 .973-.22 1.173-1.224 1.175-1.32.004-2.64.007-3.96.015-.066 0-.126.028-.24.059v1.439c.474 0 .948-.003 1.42 0 .56.004.86.284.863.849.004 1.244 0 1.671.004 2.919 0 .598-.326.889-.9.889-3.062.004-6.12.004-9.184 0-.582 0-.887-.29-.882-.898.014-1.226-.003-1.63.008-2.852.006-.669.238-.887.927-.904.415-.01.836-.015 1.255-.024.008.001.025-.02.104-.08v.001Z" fill="#fff"/></g><defs><clipPath id="a"><path fill="#fff" transform="translate(.672 .666)" d="M0 0h26.665v26.665H0z"/></clipPath></defs></svg>
